X:482
T:Thornton Jig, The
R:jig
C:Donald Cameron (c. 1810-1868), Scotland
Z:hn-jig-482
M:6/8
L:1/8
K:Amix
c2A ABA | d2e fed | c2A ABA | B2g gdB |
c2A ABA | d2e fec | dfd cac | B2g gdB :|
|: c2e efe | efg aed | c2e efg | B2g gdB |
c2e efe | efg aec | dfd cac | B2g gdB :|

